tenants/businesswise/icons/close.svg

<svg fill="none" height="24" viewBox="0 0 24 24" width="24" xmlns="http://www.w3.org/2000/svg"><path d="m13.3226 11.9796 7.461-7.44104c.1474-.17171.2245-.39259.2157-.61849-.0087-.22591-.1026-.4402-.2629-.60005-.1603-.15986-.3752-.25351-.6017-.26223-.2265-.00873-.4479.06811-.6201.21516l-7.461 7.44105-7.46101-7.45003c-.16947-.16902-.39933-.26397-.639-.26397s-.46953.09495-.639.26397-.26468.39827-.26468.6373.09521.46827.26468.63729l7.47001 7.44104-7.47001 7.441c-.09421.0805-.17073.1795-.22475.2909s-.08438.2326-.08917.3563c-.00479.1236.0161.2469.06135.362.04524.1152.11387.2198.20158.3073s.19261.1559.3081.2011c.11549.0451.23909.0659.36304.0611.12394-.0047.24556-.035.35722-.0889s.21095-.1302.29163-.2241l7.47001-7.4411 7.461 7.4411c.1722.147.3936.2238.6201.2151s.4414-.1024.6017-.2622c.1603-.1599.2542-.3742.2629-.6001.0088-.2259-.0683-.4467-.2157-.6185z" fill="#000"/></svg>

<svg width="24" height="24" viewBox="0 0 24 24" fill="none" xmlns="http://www.w3.org/2000/svg">
<path d="M13.3226 11.9796L20.7836 4.53856C20.931 4.36685 21.0081 4.14597 20.9993 3.92007C20.9906 3.69416 20.8967 3.47987 20.7364 3.32002C20.5761 3.16016 20.3612 3.06651 20.1347 3.05779C19.9082 3.04906 19.6868 3.1259 19.5146 3.27295L12.0536 10.714L4.59259 3.26397C4.42312 3.09495 4.19326 3 3.95359 3C3.71392 3 3.48406 3.09495 3.31459 3.26397C3.14512 3.43299 3.04991 3.66224 3.04991 3.90127C3.04991 4.1403 3.14512 4.36954 3.31459 4.53856L10.7846 11.9796L3.31459 19.4206C3.22038 19.5011 3.14386 19.6001 3.08984 19.7115C3.03582 19.8229 3.00546 19.9441 3.00067 20.0678C2.99588 20.1914 3.01677 20.3147 3.06202 20.4298C3.10726 20.545 3.17589 20.6496 3.2636 20.7371C3.35131 20.8246 3.45621 20.893 3.5717 20.9382C3.68719 20.9833 3.81079 21.0041 3.93474 20.9993C4.05868 20.9946 4.1803 20.9643 4.29196 20.9104C4.40362 20.8565 4.50291 20.7802 4.58359 20.6863L12.0536 13.2452L19.5146 20.6863C19.6868 20.8333 19.9082 20.9101 20.1347 20.9014C20.3612 20.8927 20.5761 20.799 20.7364 20.6392C20.8967 20.4793 20.9906 20.265 20.9993 20.0391C21.0081 19.8132 20.931 19.5924 20.7836 19.4206L13.3226 11.9796Z" fill="black"/>
</svg>
